images_sukapura_svg/cmd/sc_editstyle.svg

<svg viewBox="0 0 16 16" xmlns="http://www.w3.org/2000/svg">/&amp;amp;amp;gt;<path d="m9.5193315 10.731618h-5.4806118l-1.1153526 3.269136h-2.36531662l5.14408302-13.99959743h2.2114749l5.0863926 13.99959743h-2.374932zm-4.8075542-1.9518675h4.1441117l-2.0287879-5.9805974h-.057691z" fill="#4b4b4f" transform="matrix(.92851552 0 0 .92851552 -.518159 .000083)"/><g fill="#eac282" transform="translate(-.495572 -.5)"><path d="m8.0648836 13.101074-1.0693114 2.712486 2.9227772-.657095z" fill="#a2a2a7" stroke="#848489" stroke-linecap="square"/><path d="m11.861005 8.958496-3.524935 3.651053 2.158551 2.207933 3.493336-3.734963z" fill="#fc0" stroke="#c89e00"/><path d="m14.065594 7c-.142171 0-.283638.05379-.392578.1625977l-1.255371 1.2524416 2.135742 2.1372067 1.283203-1.229004c.21788-.2175952.21788-.5675602 0-.7851562l-1.376953-1.3754881c-.108941-.108798-.251871-.1625977-.394043-.1625977z" fill="#e68497" stroke="#b6496c"/><path d="m13.411678 10.101871-.552201-.5355508-3.5918326 3.4336798.7279278.5z" fill="#ffe014"/></g></svg>

<?xml version="1.0" encoding="UTF-8" standalone="no"?>
<svg
   xmlns:dc="http://purl.org/dc/elements/1.1/"
   xmlns:cc="http://creativecommons.org/ns#"
   xmlns:rdf="http://www.w3.org/1999/02/22-rdf-syntax-ns#"
   xmlns:svg="http://www.w3.org/2000/svg"
   xmlns="http://www.w3.org/2000/svg"
   xmlns:sodipodi="http://sodipodi.sourceforge.net/DTD/sodipodi-0.dtd"
   xmlns:inkscape="http://www.inkscape.org/namespaces/inkscape"
   viewBox="0 0 16 16"
   version="1.1"
   id="svg14"
   sodipodi:docname="sc_editstyle.svg"
   inkscape:version="0.92.3 (2405546, 2018-03-11)"><metadata
   id="metadata20">
  <rdf:RDF>
    <cc:Work
       rdf:about="">
      <dc:format>image/svg+xml</dc:format>
      <dc:type
         rdf:resource="http://purl.org/dc/dcmitype/StillImage" />
    </cc:Work>
  </rdf:RDF>
</metadata>
<defs
   id="defs18" />
<sodipodi:namedview
   pagecolor="#ffffff"
   bordercolor="#666666"
   borderopacity="1"
   objecttolerance="10"
   gridtolerance="10"
   guidetolerance="10"
   inkscape:pageopacity="0"
   inkscape:pageshadow="2"
   inkscape:window-width="1366"
   inkscape:window-height="716"
   id="namedview16"
   showgrid="false"
   inkscape:zoom="14.75"
   inkscape:cx="-4.5084746"
   inkscape:cy="8"
   inkscape:window-x="-8"
   inkscape:window-y="-8"
   inkscape:window-maximized="1"
   inkscape:current-layer="svg14" />
/&amp;amp;gt;<g
   aria-label="A"
   style="font-style:normal;font-weight:normal;font-size:19.69174194px;line-height:1.25;font-family:sans-serif;letter-spacing:0px;word-spacing:0px;fill:#4b4b4f;fill-opacity:1;stroke:none;stroke-width:0.49229354"
   id="text14271"
   transform="matrix(0.92851552,0,0,0.92851552,-0.51815853,8.3106805e-5)">
  <path
     inkscape:connector-curvature="0"
     d="M 9.5193315,10.731618 H 4.0387197 L 2.9233671,14.000754 H 0.55805048 L 5.7021335,0.00115657 H 7.9136084 L 13.000001,14.000754 H 10.625069 Z M 4.7117773,8.7797505 H 8.855889 L 6.8271011,2.7991531 h -0.057691 z"
     style="font-style:normal;font-variant:normal;font-weight:500;font-stretch:normal;font-family:Roboto;-inkscape-font-specification:'Roboto Medium';fill:#4b4b4f;fill-opacity:1;stroke-width:0.49229354"
     id="path14988" />
</g>
<g
   fill="#eac282"
   transform="translate(-.495572 -.5)"
   id="g12">
  <path
     d="m8.0648836 13.101074-1.0693114 2.712486 2.9227772-.657095z"
     fill="#a2a2a7"
     stroke="#848489"
     stroke-linecap="square"
     id="path4" />
  <path
     d="m11.861005 8.958496-3.524935 3.651053 2.158551 2.207933 3.493336-3.734963z"
     fill="#fc0"
     stroke="#c89e00"
     id="path6" />
  <path
     d="m14.065594 7c-.142171 0-.283638.05379-.392578.1625977l-1.255371 1.2524416 2.135742 2.1372067 1.283203-1.229004c.21788-.2175952.21788-.5675602 0-.7851562l-1.376953-1.3754881c-.108941-.108798-.251871-.1625977-.394043-.1625977z"
     fill="#e68497"
     stroke="#b6496c"
     id="path8" />
  <path
     d="m13.411678 10.101871-.552201-.5355508-3.5918326 3.4336798.7279278.5z"
     fill="#ffe014"
     id="path10" />
</g>
</svg>
